outputs/icons/file/doc_attach_round.svg

<svg xmlns="http://www.w3.org/2000/svg" width="1200" height="1200" fill="none"><g fill="#000" clip-path="url(#a)"><path d="M828.76 50H157.079C98.186 50 50 99.5 50 160v880c0 60.5 47.65 110 106.544 110h886.376c58.895 0 107.08-49.5 107.08-110V380zm214.16 990H157.079V160H775.22v275h267.7z"/><path d="M192.285 600.995h112.5q70.5 0 104.5 45t34 129.5-34 129.5-104.5 45h-112.5zm107.5 290q33.5.001 49-21.5c10.333-14.335 15.5-35.165 15.5-62.5v-63.5q0-40.499-15.5-62t-49-21.5h-33.5v231zM600.09 955.995q-69.998-.001-103.5-47.5-33-47.499-33-133t33-133q33.503-47.499 103.5-47.5 69.999.001 103 47.5 33.501 47.499 33.5 133 .001 85.501-33.5 133-33.001 47.499-103 47.5m0-60.5q32.001-.001 44-23.5 12.501-23.999 12.5-66.5v-60.5q.001-42.001-12.5-65.5-11.999-24-44-24c-21.335 0-36.165 8-44.5 24q-12 23.499-12 65.5v61q0 42 12 66c8.335 15.665 23.165 23.5 44.5 23.5M897.895 955.995c-46.665 0-81.335-15.665-104-47q-33.501-47.497-33.5-133.5c0-57.335 11.165-101.665 33.5-133 22.665-31.665 57.335-47.5 104-47.5q27.001 0 47.5 7.5c14 4.665 26 11.335 36 20q14.999 12.998 24.5 31.5c6.665 12.335 11.835 26.165 15.5 41.5l-70 17q-3.001-12.501-7-23-3.997-10.5-10.5-18-5.999-7.501-15.5-11.5-9.001-4.5-22-4.5-30.503 0-43.5 24-12.501 23.499-12.5 65.5v61q-.001 42 12.5 66 12.997 23.499 43.5 23.5 26.003-.001 37.5-16c8-10.665 13.835-24.335 17.5-41l70 17c-3.665 15.335-8.835 29.165-15.5 41.5q-9.501 18.501-24.5 32c-10 8.665-22 15.335-36 20q-20.499 6.999-47.5 7"/></g><defs><clipPath id="a"><path fill="#fff" d="M0 0h1200v1200H0z"/></clipPath></defs></svg>

<svg width="1200" height="1200" viewBox="0 0 1200 1200" fill="none" xmlns="http://www.w3.org/2000/svg"><g clip-path="url(#clip0_238_2704)"><path d="M828.76 50H157.079C98.186 50 50 99.5 50 160V1040C50 1100.5 97.65 1150 156.544 1150H1042.92C1101.815 1150 1150 1100.5 1150 1040V380L828.76 50ZM1042.92 1040H157.079V160H775.22V435H1042.92V1040Z" fill="#1D1E23"/><path d="M192.291 600.995H304.792C351.791 600.995 386.625 615.995 409.291 645.995C431.958 675.995 443.292 719.16 443.292 775.495C443.292 831.83 431.958 874.995 409.291 904.995C386.625 934.995 351.791 949.995 304.792 949.995H192.291V600.995ZM299.791 890.995C322.125 890.995 338.458 883.83 348.791 869.495C359.124 855.16 364.291 834.33 364.291 806.995V743.495C364.291 716.495 359.124 695.83 348.791 681.495C338.458 667.16 322.125 659.995 299.791 659.995H266.291V890.995H299.791Z" fill="#1D1E23"/><path d="M600.095 955.995C553.43 955.995 518.93 940.16 496.596 908.495C474.596 876.83 463.596 832.495 463.596 775.495C463.596 718.495 474.596 674.16 496.596 642.495C518.93 610.83 553.43 594.995 600.095 594.995C646.765 594.995 681.095 610.83 703.095 642.495C725.43 674.16 736.595 718.495 736.595 775.495C736.595 832.495 725.43 876.83 703.095 908.495C681.095 940.16 646.765 955.995 600.095 955.995ZM600.095 895.495C621.43 895.495 636.095 887.66 644.095 871.995C652.43 855.995 656.595 833.83 656.595 805.495V744.995C656.595 716.995 652.43 695.16 644.095 679.495C636.095 663.495 621.43 655.495 600.095 655.495C578.765 655.495 563.93 663.495 555.595 679.495C547.595 695.16 543.595 716.995 543.595 744.995V805.995C543.595 833.995 547.595 855.995 555.595 871.995C563.93 887.66 578.765 895.495 600.095 895.495Z" fill="#1D1E23"/><path d="M897.9 955.995C851.235 955.995 816.565 940.33 793.9 908.995C771.565 877.33 760.4 832.83 760.4 775.495C760.4 718.16 771.565 673.83 793.9 642.495C816.565 610.83 851.235 594.995 897.9 594.995C915.9 594.995 931.735 597.495 945.4 602.495C959.4 607.16 971.4 613.83 981.4 622.495C991.4 631.16 999.565 641.66 1005.9 653.995C1012.565 666.33 1017.735 680.16 1021.4 695.495L951.4 712.495C949.4 704.16 947.065 696.495 944.4 689.495C941.735 682.495 938.235 676.495 933.9 671.495C929.9 666.495 924.735 662.66 918.4 659.995C912.4 656.995 905.065 655.495 896.4 655.495C876.065 655.495 861.565 663.495 852.9 679.495C844.565 695.16 840.4 716.995 840.4 744.995V805.995C840.4 833.995 844.565 855.995 852.9 871.995C861.565 887.66 876.065 895.495 896.4 895.495C913.735 895.495 926.235 890.16 933.9 879.495C941.9 868.83 947.735 855.16 951.4 838.495L1021.4 855.495C1017.735 870.83 1012.565 884.66 1005.9 896.995C999.565 909.33 991.4 919.995 981.4 928.995C971.4 937.66 959.4 944.33 945.4 948.995C931.735 953.66 915.9 955.995 897.9 955.995Z" fill="#1D1E23"/></g><defs><clipPath id="clip0_238_2704"><path width="24" fill="white" d="M0 0H1200V1200H0V0z"/></clipPath></defs></svg>
